assets/img/cds-iot-networks.svg

<svg fill="none" height="436" viewBox="0 0 548 436" width="548" xmlns="http://www.w3.org/2000/svg" xmlns:xlink="http://www.w3.org/1999/xlink"><mask id="a" fill="#fff"><path d="m502.4 422.69h-174.96v-123.77c0-13.457-10.945-24.402-24.402-24.402h-58.074c-13.457 0-24.402 10.945-24.402 24.402v123.77l-174.9599-.004c-3.6211 0-6.5625 2.942-6.5625 6.563s2.9414 6.562 6.5625 6.562h456.7899c3.621 0 6.563-2.941 6.563-6.562s-2.93-6.563-6.551-6.563z" fill="#fff"/></mask><mask id="b" fill="#fff"><path d="m267.44 164.41v96.984h13.125v-96.984c-2.152.262-4.332.43-6.563.43-2.222 0-4.402-.176-6.562-.43z" fill="#fff"/></mask><mask id="c" fill="#fff"><path d="m274 151.71c23.066 0 41.824-18.77 41.824-41.824 0-23.055-18.77-41.824-41.824-41.824s-41.824 18.77-41.824 41.824c0 23.055 18.758 41.824 41.824 41.824z" fill="#fff"/></mask><mask id="d" fill="#fff"><path d="m162.11 149.25c1.672 0 3.359-.64 4.637-1.926 2.562-2.562 2.562-6.718 0-9.285-7.524-7.523-11.672-17.527-11.672-28.168 0-10.6408 4.148-20.6408 11.672-28.1678 2.562-2.5625 2.562-6.7188 0-9.2852-2.563-2.5625-6.719-2.5625-9.285 0-10.012 10-15.516 23.301-15.516 37.441s5.511 27.441 15.516 37.441c1.289 1.305 2.968 1.949 4.648 1.949z" fill="#fff"/></mask><mask id="e" fill="#fff"><path d="m105.98 178.92c1.672 0 3.359-.64 4.637-1.926 2.562-2.562 2.562-6.718 0-9.285-15.4533-15.453-23.9573-35.988-23.9573-57.836 0-21.8478 8.5156-42.3948 23.9573-57.8358 2.562-2.5625 2.562-6.7188 0-9.2852-2.563-2.5625-6.719-2.5625-9.286 0-17.9375 17.93-27.8085 41.766-27.8085 67.121 0 25.359 9.8711 49.191 27.8085 67.121 1.286 1.289 2.957 1.926 4.649 1.926z" fill="#fff"/></mask><mask id="f" fill="#fff"><path d="m49.85 219.57c1.6719 0 3.3594-.64 4.6367-1.926 2.5625-2.562 2.5625-6.718 0-9.285-26.312-26.301-40.793-61.277-40.793-98.48 0-37.2028 14.48-72.1878 40.793-98.4878 2.5625-2.56254 2.5625-6.71884 0-9.28524-2.5625-2.562503-6.7188-2.562503-9.2852 0-28.789 28.78904-44.640953 67.05904-44.640953 107.77004 0 40.703 15.854953 78.977 44.640953 107.77 1.2891 1.277 2.9609 1.926 4.6484 1.926z" fill="#fff"/></mask><mask id="g" fill="#fff"><path d="m381.25 147.33c1.277 1.277 2.957 1.926 4.637 1.926 1.672 0 3.359-.641 4.636-1.918 10.012-10 15.523-23.301 15.523-37.449 0-14.1481-5.519-27.4491-15.523-37.4491-2.574-2.5625-6.718-2.5547-9.285 0-2.562 2.5625-2.562 6.7188 0 9.2852 7.524 7.5156 11.68 17.516 11.68 28.1559 0 10.64-4.156 20.641-11.68 28.156-2.554 2.57-2.554 6.719.012 9.293z" fill="#fff"/></mask><mask id="h" fill="#fff"><path d="m437.38 177c1.277 1.278 2.957 1.926 4.637 1.926 1.679 0 3.359-.641 4.636-1.926 17.938-17.93 27.809-41.766 27.809-67.121 0-25.3587-9.871-49.1907-27.809-67.1207-2.562-2.5625-6.718-2.5625-9.285 0-2.562 2.5625-2.562 6.7188 0 9.2852 15.453 15.453 23.957 35.988 23.957 57.8355 0 21.848-8.515 42.395-23.957 57.836-2.551 2.575-2.551 6.723.012 9.286z" fill="#fff"/></mask><mask id="i" fill="#fff"><path d="m493.51 217.65c1.277 1.278 2.957 1.926 4.637 1.926 1.679 0 3.359-.64 4.636-1.926 28.789-28.789 44.641-67.059 44.641-107.77 0-40.7146-15.855-78.9836-44.641-107.76965-2.562-2.562498-6.719-2.562498-9.285 0-2.562 2.5625-2.562 6.7188 0 9.28525 26.312 26.312 40.793 61.2849 40.793 98.4884 0 37.203-14.48 72.18-40.793 98.48-2.551 2.566-2.551 6.722.012 9.285z" fill="#fff"/></mask><g fill="#7c3aed" stroke="#fff" stroke-width="4"><path d="m502.4 422.69h-174.96v-123.77c0-13.457-10.945-24.402-24.402-24.402h-58.074c-13.457 0-24.402 10.945-24.402 24.402v123.77l-174.9599-.004c-3.6211 0-6.5625 2.942-6.5625 6.563s2.9414 6.562 6.5625 6.562h456.7899c3.621 0 6.563-2.941 6.563-6.562s-2.93-6.563-6.551-6.563z" mask="url(#a)"/><path d="m267.44 164.41v96.984h13.125v-96.984c-2.152.262-4.332.43-6.563.43-2.222 0-4.402-.176-6.562-.43z" mask="url(#b)"/><path d="m274 151.71c23.066 0 41.824-18.77 41.824-41.824 0-23.055-18.77-41.824-41.824-41.824s-41.824 18.77-41.824 41.824c0 23.055 18.758 41.824 41.824 41.824z" mask="url(#c)"/><path d="m162.11 149.25c1.672 0 3.359-.64 4.637-1.926 2.562-2.562 2.562-6.718 0-9.285-7.524-7.523-11.672-17.527-11.672-28.168 0-10.6408 4.148-20.6408 11.672-28.1678 2.562-2.5625 2.562-6.7188 0-9.2852-2.563-2.5625-6.719-2.5625-9.285 0-10.012 10-15.516 23.301-15.516 37.441s5.511 27.441 15.516 37.441c1.289 1.305 2.968 1.949 4.648 1.949z" mask="url(#d)"/><path d="m105.98 178.92c1.672 0 3.359-.64 4.637-1.926 2.562-2.562 2.562-6.718 0-9.285-15.4533-15.453-23.9573-35.988-23.9573-57.836 0-21.8478 8.5156-42.3948 23.9573-57.8358 2.562-2.5625 2.562-6.7188 0-9.2852-2.563-2.5625-6.719-2.5625-9.286 0-17.9375 17.93-27.8085 41.766-27.8085 67.121 0 25.359 9.8711 49.191 27.8085 67.121 1.286 1.289 2.957 1.926 4.649 1.926z" mask="url(#e)"/><path d="m49.85 219.57c1.6719 0 3.3594-.64 4.6367-1.926 2.5625-2.562 2.5625-6.718 0-9.285-26.312-26.301-40.793-61.277-40.793-98.48 0-37.2028 14.48-72.1878 40.793-98.4878 2.5625-2.56254 2.5625-6.71884 0-9.28524-2.5625-2.562503-6.7188-2.562503-9.2852 0-28.789 28.78904-44.640953 67.05904-44.640953 107.77004 0 40.703 15.854953 78.977 44.640953 107.77 1.2891 1.277 2.9609 1.926 4.6484 1.926z" mask="url(#f)"/><path d="m381.25 147.33c1.277 1.277 2.957 1.926 4.637 1.926 1.672 0 3.359-.641 4.636-1.918 10.012-10 15.523-23.301 15.523-37.449 0-14.1481-5.519-27.4491-15.523-37.4491-2.574-2.5625-6.718-2.5547-9.285 0-2.562 2.5625-2.562 6.7188 0 9.2852 7.524 7.5156 11.68 17.516 11.68 28.1559 0 10.64-4.156 20.641-11.68 28.156-2.554 2.57-2.554 6.719.012 9.293z" mask="url(#g)"/><path d="m437.38 177c1.277 1.278 2.957 1.926 4.637 1.926 1.679 0 3.359-.641 4.636-1.926 17.938-17.93 27.809-41.766 27.809-67.121 0-25.3587-9.871-49.1907-27.809-67.1207-2.562-2.5625-6.718-2.5625-9.285 0-2.562 2.5625-2.562 6.7188 0 9.2852 15.453 15.453 23.957 35.988 23.957 57.8355 0 21.848-8.515 42.395-23.957 57.836-2.551 2.575-2.551 6.723.012 9.286z" mask="url(#h)"/><path d="m493.51 217.65c1.277 1.278 2.957 1.926 4.637 1.926 1.679 0 3.359-.64 4.636-1.926 28.789-28.789 44.641-67.059 44.641-107.77 0-40.7146-15.855-78.9836-44.641-107.76965-2.562-2.562498-6.719-2.562498-9.285 0-2.562 2.5625-2.562 6.7188 0 9.28525 26.312 26.312 40.793 61.2849 40.793 98.4884 0 37.203-14.48 72.18-40.793 98.48-2.551 2.566-2.551 6.722.012 9.285z" mask="url(#i)"/></g></svg>

<svg width="548" height="436" viewBox="0 0 548 436" fill="none" xmlns="http://www.w3.org/2000/svg">
<mask id="path-1-inside-1_4076_563" fill="white">
<path d="M502.4 422.69H327.44V298.92C327.44 285.463 316.495 274.518 303.038 274.518H244.964C231.507 274.518 220.562 285.463 220.562 298.92V422.69L45.6021 422.686C41.981 422.686 39.0396 425.628 39.0396 429.249C39.0396 432.87 41.981 435.811 45.6021 435.811H502.392C506.013 435.811 508.955 432.87 508.955 429.249C508.955 425.628 506.025 422.686 502.404 422.686L502.4 422.69Z"/>
</mask>
<path d="M502.4 422.69H327.44V298.92C327.44 285.463 316.495 274.518 303.038 274.518H244.964C231.507 274.518 220.562 285.463 220.562 298.92V422.69L45.6021 422.686C41.981 422.686 39.0396 425.628 39.0396 429.249C39.0396 432.87 41.981 435.811 45.6021 435.811H502.392C506.013 435.811 508.955 432.87 508.955 429.249C508.955 425.628 506.025 422.686 502.404 422.686L502.4 422.69Z" fill="#7c3aed" stroke="white" stroke-width="4" mask="url(#path-1-inside-1_4076_563)"/>
<mask id="path-2-inside-2_4076_563" fill="white">
<path d="M267.44 164.41V261.394H280.565V164.41C278.413 164.672 276.233 164.84 274.002 164.84C271.78 164.84 269.6 164.664 267.44 164.41V164.41Z"/>
</mask>
<path d="M267.44 164.41V261.394H280.565V164.41C278.413 164.672 276.233 164.84 274.002 164.84C271.78 164.84 269.6 164.664 267.44 164.41V164.41Z" fill="#7c3aed" stroke="white" stroke-width="4" mask="url(#path-2-inside-2_4076_563)"/>
<mask id="path-3-inside-3_4076_563" fill="white">
<path d="M274 151.71C297.066 151.71 315.824 132.94 315.824 109.886C315.824 86.831 297.054 68.062 274 68.062C250.946 68.062 232.176 86.832 232.176 109.886C232.176 132.941 250.934 151.71 274 151.71V151.71Z"/>
</mask>
<path d="M274 151.71C297.066 151.71 315.824 132.94 315.824 109.886C315.824 86.831 297.054 68.062 274 68.062C250.946 68.062 232.176 86.832 232.176 109.886C232.176 132.941 250.934 151.71 274 151.71V151.71Z" fill="#7c3aed" stroke="white" stroke-width="4" mask="url(#path-3-inside-3_4076_563)"/>
<mask id="path-4-inside-4_4076_563" fill="white">
<path d="M162.11 149.25C163.782 149.25 165.469 148.61 166.747 147.324C169.309 144.762 169.309 140.606 166.747 138.039C159.223 130.516 155.075 120.512 155.075 109.871C155.075 99.2302 159.223 89.2302 166.747 81.7032C169.309 79.1407 169.309 74.9844 166.747 72.418C164.184 69.8555 160.028 69.8555 157.462 72.418C147.45 82.418 141.946 95.719 141.946 109.859C141.946 123.999 147.457 137.3 157.462 147.3C158.751 148.605 160.43 149.249 162.11 149.249L162.11 149.25Z"/>
</mask>
<path d="M162.11 149.25C163.782 149.25 165.469 148.61 166.747 147.324C169.309 144.762 169.309 140.606 166.747 138.039C159.223 130.516 155.075 120.512 155.075 109.871C155.075 99.2302 159.223 89.2302 166.747 81.7032C169.309 79.1407 169.309 74.9844 166.747 72.418C164.184 69.8555 160.028 69.8555 157.462 72.418C147.45 82.418 141.946 95.719 141.946 109.859C141.946 123.999 147.457 137.3 157.462 147.3C158.751 148.605 160.43 149.249 162.11 149.249L162.11 149.25Z" fill="#7c3aed" stroke="white" stroke-width="4" mask="url(#path-4-inside-4_4076_563)"/>
<mask id="path-5-inside-5_4076_563" fill="white">
<path d="M105.98 178.92C107.652 178.92 109.339 178.28 110.617 176.994C113.179 174.432 113.179 170.276 110.617 167.709C95.1637 152.256 86.6597 131.721 86.6597 109.873C86.6597 88.0252 95.1753 67.4782 110.617 52.0372C113.179 49.4747 113.179 45.3184 110.617 42.752C108.054 40.1895 103.898 40.1895 101.331 42.752C83.3935 60.682 73.5225 84.518 73.5225 109.873C73.5225 135.232 83.3936 159.064 101.331 176.994C102.617 178.283 104.288 178.92 105.98 178.92L105.98 178.92Z"/>
</mask>
<path d="M105.98 178.92C107.652 178.92 109.339 178.28 110.617 176.994C113.179 174.432 113.179 170.276 110.617 167.709C95.1637 152.256 86.6597 131.721 86.6597 109.873C86.6597 88.0252 95.1753 67.4782 110.617 52.0372C113.179 49.4747 113.179 45.3184 110.617 42.752C108.054 40.1895 103.898 40.1895 101.331 42.752C83.3935 60.682 73.5225 84.518 73.5225 109.873C73.5225 135.232 83.3936 159.064 101.331 176.994C102.617 178.283 104.288 178.92 105.98 178.92L105.98 178.92Z" fill="#7c3aed" stroke="white" stroke-width="4" mask="url(#path-5-inside-5_4076_563)"/>
<mask id="path-6-inside-6_4076_563" fill="white">
<path d="M49.85 219.57C51.5219 219.57 53.2094 218.93 54.4867 217.644C57.0492 215.082 57.0492 210.926 54.4867 208.359C28.1747 182.058 13.6937 147.082 13.6937 109.879C13.6937 72.6762 28.1737 37.6912 54.4867 11.3912C57.0492 8.82866 57.0492 4.67236 54.4867 2.10596C51.9242 -0.456543 47.7679 -0.456543 45.2015 2.10596C16.4125 30.895 0.560547 69.165 0.560547 109.876C0.560547 150.579 16.4155 188.853 45.2015 217.646C46.4906 218.923 48.1624 219.572 49.8499 219.572L49.85 219.57Z"/>
</mask>
<path d="M49.85 219.57C51.5219 219.57 53.2094 218.93 54.4867 217.644C57.0492 215.082 57.0492 210.926 54.4867 208.359C28.1747 182.058 13.6937 147.082 13.6937 109.879C13.6937 72.6762 28.1737 37.6912 54.4867 11.3912C57.0492 8.82866 57.0492 4.67236 54.4867 2.10596C51.9242 -0.456543 47.7679 -0.456543 45.2015 2.10596C16.4125 30.895 0.560547 69.165 0.560547 109.876C0.560547 150.579 16.4155 188.853 45.2015 217.646C46.4906 218.923 48.1624 219.572 49.8499 219.572L49.85 219.57Z" fill="#7c3aed" stroke="white" stroke-width="4" mask="url(#path-6-inside-6_4076_563)"/>
<mask id="path-7-inside-7_4076_563" fill="white">
<path d="M381.25 147.33C382.527 148.607 384.207 149.256 385.887 149.256C387.559 149.256 389.246 148.615 390.523 147.338C400.535 137.338 406.046 124.037 406.046 109.889C406.046 95.7409 400.527 82.4399 390.523 72.4399C387.949 69.8774 383.805 69.8852 381.238 72.4399C378.676 75.0024 378.676 79.1587 381.238 81.7251C388.762 89.2407 392.918 99.2411 392.918 109.881C392.918 120.521 388.762 130.522 381.238 138.037C378.684 140.607 378.684 144.756 381.25 147.33H381.25Z"/>
</mask>
<path d="M381.25 147.33C382.527 148.607 384.207 149.256 385.887 149.256C387.559 149.256 389.246 148.615 390.523 147.338C400.535 137.338 406.046 124.037 406.046 109.889C406.046 95.7409 400.527 82.4399 390.523 72.4399C387.949 69.8774 383.805 69.8852 381.238 72.4399C378.676 75.0024 378.676 79.1587 381.238 81.7251C388.762 89.2407 392.918 99.2411 392.918 109.881C392.918 120.521 388.762 130.522 381.238 138.037C378.684 140.607 378.684 144.756 381.25 147.33H381.25Z" fill="#7c3aed" stroke="white" stroke-width="4" mask="url(#path-7-inside-7_4076_563)"/>
<mask id="path-8-inside-8_4076_563" fill="white">
<path d="M437.38 177C438.657 178.278 440.337 178.926 442.017 178.926C443.696 178.926 445.376 178.285 446.653 177C464.591 159.07 474.462 135.234 474.462 109.879C474.462 84.5203 464.591 60.6883 446.653 42.7583C444.091 40.1958 439.935 40.1958 437.368 42.7583C434.806 45.3208 434.806 49.4771 437.368 52.0435C452.821 67.4965 461.325 88.0315 461.325 109.879C461.325 131.727 452.81 152.274 437.368 167.715C434.817 170.29 434.817 174.438 437.38 177.001L437.38 177Z"/>
</mask>
<path d="M437.38 177C438.657 178.278 440.337 178.926 442.017 178.926C443.696 178.926 445.376 178.285 446.653 177C464.591 159.07 474.462 135.234 474.462 109.879C474.462 84.5203 464.591 60.6883 446.653 42.7583C444.091 40.1958 439.935 40.1958 437.368 42.7583C434.806 45.3208 434.806 49.4771 437.368 52.0435C452.821 67.4965 461.325 88.0315 461.325 109.879C461.325 131.727 452.81 152.274 437.368 167.715C434.817 170.29 434.817 174.438 437.38 177.001L437.38 177Z" fill="#7c3aed" stroke="white" stroke-width="4" mask="url(#path-8-inside-8_4076_563)"/>
<mask id="path-9-inside-9_4076_563" fill="white">
<path d="M493.51 217.65C494.787 218.928 496.467 219.576 498.147 219.576C499.826 219.576 501.506 218.936 502.783 217.65C531.572 188.861 547.424 150.591 547.424 109.88C547.424 69.1654 531.569 30.8964 502.783 2.11035C500.221 -0.452148 496.064 -0.452148 493.498 2.11035C490.936 4.67285 490.936 8.82915 493.498 11.3956C519.81 37.7076 534.291 72.6805 534.291 109.884C534.291 147.087 519.811 182.064 493.498 208.364C490.947 210.93 490.947 215.086 493.51 217.649L493.51 217.65Z"/>
</mask>
<path d="M493.51 217.65C494.787 218.928 496.467 219.576 498.147 219.576C499.826 219.576 501.506 218.936 502.783 217.65C531.572 188.861 547.424 150.591 547.424 109.88C547.424 69.1654 531.569 30.8964 502.783 2.11035C500.221 -0.452148 496.064 -0.452148 493.498 2.11035C490.936 4.67285 490.936 8.82915 493.498 11.3956C519.81 37.7076 534.291 72.6805 534.291 109.884C534.291 147.087 519.811 182.064 493.498 208.364C490.947 210.93 490.947 215.086 493.51 217.649L493.51 217.65Z" fill="#7c3aed" stroke="white" stroke-width="4" mask="url(#path-9-inside-9_4076_563)"/>
</svg>
